X:82
T:Abe's Retreat (I)
C:From Dwight Diller
M:4/4
L:1/8
S:http://youtu.be/G6mQKPkQ8eE
Z:abc-transcription Josh Larios <hades@elsewhere.org>, 2015.10.16
N:Fiddle in cross-A tuning for drones and octave shifts. It's playable in standard tuning, though not as fun.
N:This performance is all about the rhythm, so definitely watch the video. NB: Dwight is playing it in cross-G; I've set it in A. 
N:# Cs marked with a hash above are kind of half-sharp, or slide from natural towards sharp.
G:Key: ADor
K:ADor
E/G/ |: "Am"A2 A2 Ac cd | eg ed e2 dc | A2 A2 c2 cc | "E7"A2 E2 E2 EE | 
"Am"EG A2 Ac cd | eg ed e2 eg | "E7"ae g2 "G"eg eA |1 "^#""Am"c2 A2 A2 zE/G/ :|2 "^#""Am"c2 A2 A2 ze/g/ | 
|:a2 a2 ag ee | ge ga eg eg | a2 a2 b2 aa | g2 e2 e2 eg | 
a2 ab ag ee | ge g-{a}g e2 "^#"cd | e2 A2 eg ee |1 "^#"c2 A2 A2 ze/g/ :|2 "^#"c2 A2 A2 zE/G/ | 

